X: 108
T:Missa Di dadi / Credo
N: Derived from Jos0903c-Missa_Di_dadi-Credo.krn
C: Josquin des Prez
%%abc-version 2.0
%%abcx-abcm2ps-target-version 5.9.1 (29 Sep 2008)
%%abc-creator hum2abc beta
%%abcx-conversion-date 2019/02/12 16:15:43
%%abc-edited-by Jesse Rodin
%%abc-edited-by Jesse Rodin; Victoria Chang 2012/01/27
%%abcx-initial-encoding-date 2012/01/27/
%%humdrum-veritas 3068702160
%%humdrum-veritas-data 943487702
%%linebreak <none>
%%barnumbers 0
L: 1/4
M: 3/1
Q: 1/2=120
%%staves [1 2 3 4]
V: 1 clef=treble
V: 2 clef=treble-8
V: 3 clef=treble-8
V: 4 clef=bass
K: F
[V:1] G12 | 
[V:2] G6A2B4 | 
[V:3] z12 :
[V:4] z12 | 
[V:1] E4F6GA | 
[V:2] c4A4d4- | 
[V:3] x12 :
[V:4] z12 | 
[V:1] B6AGB4 | 
[V:2] d4G8 | 
[V:3] z12 :
[V:4] z12 | 
[V:1] A2G4F2E4 | 
[V:2] c8c4 | 
[V:3] x12 :
[V:4] z12 | 
[V:1] D8D4 | 
[V:2] B3AG2F2G2D2 | 
[V:3] z12 :
[V:4] z12 | 
[V:1] D2_E2D2C2D2B,2 | 
[V:2] G12 | 
[V:3] x12 | 
[V:4] z12 | 
[V:1] A,12 | 
[V:2] F8z2d2- | 
[V:3] z12 :
[V:4] z4z4D,4 | 
[V:1] z12 | 
[V:2] d2c2B2A4G2 | 
[V:3] x12 :
[V:4] D,2_E,2D,2C,2D,2B,,2 | 
[V:1] z12 | 
[V:2] A2F2E4z4 | 
[V:3] z12 :
[V:4] A,,4z4G,,4- | 
[V:1] z12 | 
[V:2] D6E2F2G2 | 
[V:3] x12 :
[V:4] G,,2A,,2B,,2C,2D,2B,,2 | 
[V:1] z12 | 
[V:2] A2F2G2A2D2F2 | 
[V:3] z12 :
[V:4] C,2D,2G,,2D,3C,A,,2 | 
[V:1] z12 | 
[V:2] G2A3GG4^F2 | 
[V:3] x12 | 
[V:4] B,,2C,3B,,G,,2A,,4 | 
[V:1] D4D4D4 | 
[V:2] G8D4 | 
[V:3] G12- :
[V:4] G,,12- | 
[V:1] G6F2E2D2 | 
[V:2] E4D4G4- | 
[V:3] G12 :
[V:4] G,,12 | 
[V:1] D4G8 | 
[V:2] G2F2E2D2D4 | 
[V:3] B12 :
[V:4] G,,8G,,4 | 
[V:1] F4E8 | 
[V:2] A8A4 | 
[V:3] c12 :
[V:4] A,,8A,,4 | 
[V:1] D8B4 | 
[V:2] F4D8 | 
[V:3] d12- :
[V:4] B,,8B,,4 | 
[V:1] B4A2A4GF | 
[V:2] G4F2D2F4 | 
[V:3] d12 | 
[V:4] G,,4D,8 | 
[V:1] E8D4 | 
[V:2] G4A2G2B3c | 
[V:3] z12 :
[V:4] C,8B,,4- | 
[V:1] z4z4B4 | 
[V:2] d12- | 
[V:3] B12 :
[V:4] B,,4G,,8- | 
[V:1] B6A2G4 | 
[V:2] d4B4c4 | 
[V:3] G12 :
[V:4] G,,4_E,8 | 
[V:1] F4E8 | 
[V:2] d4z4E4 | 
[V:3] A12 :
[V:4] D,4C,8 | 
[V:1] D8G4- | 
[V:2] F4G8 | 
[V:3] B12- :
[V:4] B,,4G,,8- | 
[V:1] G4B8 | 
[V:2] d8G4 | 
[V:3] B12 | 
[V:4] G,,4G,8 | 
[V:1] A4G8 | 
[V:2] A2F2G8 | 
[V:3] c12 :
[V:4] F,4E,8 | 
[V:1] F8F3G | 
[V:2] A4B2A4D2 | 
[V:3] d12- :
[V:4] D,12- | 
[V:1] A2B2A2F4D2 | 
[V:2] F3GA2B2A4 | 
[V:3] d12 :
[V:4] D,12 | 
[V:1] D4E6D2 | 
[V:2] G8F4- | 
[V:3] B12 :
[V:4] G,,8D,4- | 
[V:1] D6^C2C2=B,2 | 
[V:2] F4E8 | 
[V:3] A12- :
[V:4] D,4A,,8 | 
[V:1] D12 | 
[V:2] D8z2D2- | 
[V:3] A12 | 
[V:4] F,8D,4 | 
[V:1] z12 | 
[V:2] D2D2D2E2F2G2 | 
[V:3] z12 :
[V:4] G,,4G,,2G,,2A,,2B,,2 | 
[V:1] z12 | 
[V:2] Gc2cc2A2B2c2 | 
[V:3] x12 :
[V:4] C,2C,F,2F,F,2D,2E,2 | 
[V:1] z12 | 
[V:2] d4GABcABcA | 
[V:3] z12 :
[V:4] F,2G,4D,E,F,G,E,F, | 
[V:1] z12 | 
[V:2] Bcd4d4d2- | 
[V:3] x12 :
[V:4] G,E,F,G,D,2G,2F,2G,2 | 
[V:1] z12 | 
[V:2] d2B2A2c2B2A2- | 
[V:3] z12 :
[V:4] D,4F,3E,D,2C,2 | 
[V:1] z12 | 
[V:2] AGFED2G4^F2 | 
[V:3] x12 | 
[V:4] D,4B,,2G,,2A,,4 | 
[V:1] z4D2E2D2G2 | 
[V:2] G8D2E2 | 
[V:3] z12 :
[V:4] G,,12 | 
[V:1] F2D2D4F3G | 
[V:2] D2G2F2D6 | 
[V:3] x12 :
[V:4] z12 | 
[V:1] A2D2C2F2E2A2- | 
[V:2] F3GA2D2A3B | 
[V:3] z12 :
[V:4] z12 | 
[V:1] AGF2E4z2D2- | 
[V:2] c2d4c2d3c | 
[V:3] x12 :
[V:4] z12 | 
[V:1] D2C2D2B,2A,2D2- | 
[V:2] B2A2B2G2F3G | 
[V:3] z12 :
[V:4] z12 | 
[V:1] D2C2D2B,2A,4 | 
[V:2] B2A4G4^F2 | 
[V:3] x12 | 
[V:4] z12 | 
[V:1] z4B,8 | 
[V:2] G8D4 | 
[V:3] G12- :
[V:4] G,,8G,,4 | 
[V:1] B,4C4G,2C2 | 
[V:2] D4E8 | 
[V:3] G12 :
[V:4] G,,4C,8 | 
[V:1] B,2A,4D6 | 
[V:2] D4A6A2 | 
[V:3] F12- :
[V:4] D,6D,2D,4 | 
[V:1] C2D2A,2D2C2F2 | 
[V:2] A12 | 
[V:3] F12 :
[V:4] z2D,4D,2A,,2D,2 | 
[V:1] E2A4G2F2E2 | 
[V:2] z4z4F4 | 
[V:3] A12 :
[V:4] C,2F,4E,2D,4 | 
[V:1] D12 | 
[V:2] G4D2E2F3G | 
[V:3] B12 | 
[V:4] G,,2G,2F,2E,2D,4 | 
[V:1] z12 | 
[V:2] A4G8 | 
[V:3] c12 :
[V:4] C,12 | 
[V:1] D4D2D2D2D2 | 
[V:2] z2G2G2G2G2D2 | 
[V:3] B12 :
[V:4] G,,4G,,2G,,2G,,2G,,2 | 
[V:1] C2B,2C2_E2D4 | 
[V:2] _E2D2_E2C2D4 | 
[V:3] G12- :
[V:4] C,2G,,2C,2C,2B,,4 | 
[V:1] C4B,4z2D2 | 
[V:2] _E6D2D4- | 
[V:3] G12 :
[V:4] C,4G,,8 | 
[V:1] F2D2F3GA4 | 
[V:2] D4z4d4 | 
[V:3] A12- :
[V:4] z4D,4D,2D,2- | 
[V:1] A2c3BAG^F3E | 
[V:2] d2c4c2A2d2- | 
[V:3] A12 | 
[V:4] D,2A,,2C,4D,4 | 
[V:1] !fermata!G8z4 | 
[V:2] dcBA!fermata!B4z4 | 
[V:3] G12- :
[V:4] !fermata!G,,8z4 | 
[V:1] !fermata!B,4!fermata!C4!fermata!D4 | 
[V:2] !fermata!D4!fermata!_E4!fermata!D4 | 
[V:3] G12- :
[V:4] !fermata!G,,4!fermata!C,4!fermata!G,,4 | 
[V:1] G3F_E2D2C4 | 
[V:2] C6D2_E4 | 
[V:3] G12- :
[V:4] _E,3D,C,2B,,2C,4 | 
[V:1] B,12 ||  
[V:2] D12 ||  
[V:3] G12 ||  
[V:4] G,,12 ||  
[V:1] [M:2/1]G8 | 
[V:2] [M:2/1]z8 | 
[V:3] [M:2/1]z8 :
[V:4] [M:2/1]z8 | 
[V:1] D4G4- | 
[V:2] z8 | 
[V:3] x8 :
[V:4] z8 | 
[V:1] G4G4 | 
[V:2] G8 | 
[V:3] x8 :
[V:4] z8 | 
[V:1] F4G4 | 
[V:2] D4G4- | 
[V:3] x8 :
[V:4] z8 | 
[V:1] B6AG | 
[V:2] G4G4 | 
[V:3] z8 :
[V:4] z8 | 
[V:1] A4G2B2- | 
[V:2] F4G4 | 
[V:3] x8 :
[V:4] z8 | 
[V:1] B2AGF4- | 
[V:2] B6AG | 
[V:3] x8 :
[V:4] z8 | 
[V:1] F2EFG2D2- | 
[V:2] A4G2B2- | 
[V:3] x8 :
[V:4] z8 | 
[V:1] D2CB,A,4 | 
[V:2] B2AGF4- | 
[V:3] z8 :
[V:4] z8 | 
[V:1] D8- | 
[V:2] F2G2D2G2- | 
[V:3] x8 :
[V:4] z8 | 
[V:1] D8- | 
[V:2] G2^F2G4- | 
[V:3] x8 :
[V:4] z8 | 
[V:1] D8 | 
[V:2] G4D4 | 
[V:3] x8 | 
[V:4] z8 | 
[V:1] A,4C4- | 
[V:2] F6G2 | 
[V:3] z8 :
[V:4] z8 | 
[V:1] C2D2E2F2 | 
[V:2] A2B2c4- | 
[V:3] x8 :
[V:4] z8 | 
[V:1] G6F2 | 
[V:2] c2B2G4 | 
[V:3] x8 :
[V:4] z8 | 
[V:1] D4F2G2 | 
[V:2] B2c2d4- | 
[V:3] x8 :
[V:4] z8 | 
[V:1] A8- | 
[V:2] d2c2d2c2- | 
[V:3] z8 :
[V:4] z8 | 
[V:1] A4B4 | 
[V:2] c2BAG4 | 
[V:3] x8 :
[V:4] z8 | 
[V:1] A4B2G2 | 
[V:2] F4G4 | 
[V:3] x8 :
[V:4] z8 | 
[V:1] B2A4F2 | 
[V:2] D4z2D2 | 
[V:3] x8 :
[V:4] z8 | 
[V:1] G2F2D4- | 
[V:2] E2F2G2A2 | 
[V:3] z8 :
[V:4] z8 | 
[V:1] D2E2F2G2 | 
[V:2] B2c2d4- | 
[V:3] x8 :
[V:4] z8 | 
[V:1] A2B4A2- | 
[V:2] d4c4 | 
[V:3] x8 :
[V:4] z8 | 
[V:1] A2G2F2E2- | 
[V:2] B4A4 | 
[V:3] x8 | 
[V:4] z8 | 
[V:1] E2D4C2 | 
[V:2] G2F2E4 | 
[V:3] z8 :
[V:4] z8 | 
[V:1] B,2A,4G,2 | 
[V:2] D3CD2E2 | 
[V:3] x8 :
[V:4] z8 | 
[V:1] A,2B,2C2D2 | 
[V:2] F2G2E2D2 | 
[V:3] x8 :
[V:4] z8 | 
[V:1] A,3B,C2D2 | 
[V:2] F3GA2B2 | 
[V:3] x8 :
[V:4] z8 | 
[V:1] E2F2E2F2- | 
[V:2] c2d2A4- | 
[V:3] z8 :
[V:4] z8 | 
[V:1] FED4^C2 | 
[V:2] A2F2E4 | 
[V:3] x8 :
[V:4] z8 | 
[V:1] D8- | 
[V:2] z2D3EFG | 
[V:3] x8 :
[V:4] z8 | 
[V:1] D8 | 
[V:2] D2G3FGA | 
[V:3] x8 :
[V:4] z8 | 
[V:1] D3EF2G2 | 
[V:2] B2c2A2G2- | 
[V:3] z8 :
[V:4] z8 | 
[V:1] D3EF2G2 | 
[V:2] GABcd2B2 | 
[V:3] x8 :
[V:4] z8 | 
[V:1] A2B3AB2- | 
[V:2] c2d2D2G2- | 
[V:3] x8 :
[V:4] z8 | 
[V:1] BAG4^F2 | 
[V:2] G2B2A4 | 
[V:3] x8 | 
[V:4] z8 | 
[V:1] G8- | 
[V:2] z8 | 
[V:3] G8- :
[V:4] G,,4C,4- | 
[V:1] G8- | 
[V:2] z8 | 
[V:3] G8- :
[V:4] C,2D,2E,4- | 
[V:1] G8 | 
[V:2] z8 | 
[V:3] G8- :
[V:4] E,2F,2G,4 | 
[V:1] z8 | 
[V:2] z8 | 
[V:3] G8- :
[V:4] G,,4C,4- | 
[V:1] z8 | 
[V:2] z8 | 
[V:3] G8- :
[V:4] C,2D,2E,4- | 
[V:1] z8 | 
[V:2] z8 | 
[V:3] G8 :
[V:4] E,2F,2G,4 | 
[V:1] z8 | 
[V:2] G8- | 
[V:3] B8- :
[V:4] G,,8- | 
[V:1] z4D4- | 
[V:2] G8 | 
[V:3] B8- :
[V:4] G,,8- | 
[V:1] D2D2D4 | 
[V:2] G8 | 
[V:3] B8 :
[V:4] G,,8 | 
[V:1] E6C2 | 
[V:2] E4C4 | 
[V:3] c8- :
[V:4] C,8- | 
[V:1] C4G4- | 
[V:2] E6F2 | 
[V:3] c8- :
[V:4] C,8 | 
[V:1] G2ABc4 | 
[V:2] G8 | 
[V:3] c8 | 
[V:4] C,8 | 
[V:1] B2G2B2A2 | 
[V:2] G4F4 | 
[V:3] d8- :
[V:4] G,,4D,4- | 
[V:1] F4G4 | 
[V:2] B8 | 
[V:3] d8- :
[V:4] D,4G,4 | 
[V:1] A8- | 
[V:2] A8 | 
[V:3] d8- :
[V:4] F,4D,4- | 
[V:1] A4D4 | 
[V:2] D8 | 
[V:3] d8- :
[V:4] D,2C,2B,,4- | 
[V:1] D8 | 
[V:2] B6A2 | 
[V:3] d8- :
[V:4] B,,2A,,2G,,2F,,2 | 
[V:1] z8 | 
[V:2] G4F4 | 
[V:3] d8 :
[V:4] B,,3C,D,4 | 
[V:1] z8 | 
[V:2] c4B2A2- | 
[V:3] z8 :
[V:4] _E,4D,4 | 
[V:1] z8 | 
[V:2] AGFED2G2- | 
[V:3] x8 :
[V:4] C,4B,,4 | 
[V:1] z8 | 
[V:2] G2^F2^F2E2 | 
[V:3] x8 :
[V:4] A,,8 | 
[V:1] z4D4- | 
[V:2] G8- | 
[V:3] B8- :
[V:4] G,,8- | 
[V:1] D4D4 | 
[V:2] G8- | 
[V:3] B8- :
[V:4] G,,8 | 
[V:1] D4G4- | 
[V:2] G8 | 
[V:3] B8 | 
[V:4] z8 | 
[V:1] G2F2E4 | 
[V:2] z8 | 
[V:3] G8- :
[V:4] z4C,4 | 
[V:1] D2C2D2E2- | 
[V:2] z8 | 
[V:3] G8- :
[V:4] B,,2C,2G,,2C,2- | 
[V:1] E2D4^C2 | 
[V:2] z8 | 
[V:3] G8 :
[V:4] C,2D,2E,4 | 
[V:1] D8- | 
[V:2] z2F2F2F2 | 
[V:3] A8- :
[V:4] D,4z2D,2 | 
[V:1] D8 | 
[V:2] F2F2F2ED | 
[V:3] A8- :
[V:4] D,2D,2D,2D,2 | 
[V:1] z8 | 
[V:2] E4F4 | 
[V:3] A8 :
[V:4] C,4D,4 | 
[V:1] z4D4- | 
[V:2] G4D2G2- | 
[V:3] B8- :
[V:4] G,,8- | 
[V:1] D4D4- | 
[V:2] G4D2G2- | 
[V:3] B8- :
[V:4] G,,8- | 
[V:1] D2D2D4 | 
[V:2] G4D2G2 | 
[V:3] B8- :
[V:4] G,,8 | 
[V:1] D4D4- | 
[V:2] z8 | 
[V:3] B8- :
[V:4] G,4D,2G,2- | 
[V:1] D2D2D4- | 
[V:2] z8 | 
[V:3] B8- :
[V:4] G,4D,2G,2- | 
[V:1] D4D4 | 
[V:2] z8 | 
[V:3] B8 | 
[V:4] G,4D,2G,2 | 
[V:1] E6C2 | 
[V:2] G3FG2A2 | 
[V:3] c8- :
[V:4] C,3D,E,2F,2 | 
[V:1] E2F2G2C2 | 
[V:2] G2A2G2c2- | 
[V:3] c8- :
[V:4] C,2F,2E,2A,2- | 
[V:1] E2F2G4 | 
[V:2] cBA4G2 | 
[V:3] c8 :
[V:4] A,2F,2E,4 | 
[V:1] F4z2G2 | 
[V:2] A4z2B2 | 
[V:3] d8- :
[V:4] D,4z2G,2 | 
[V:1] G2G2F4 | 
[V:2] B2B2A4 | 
[V:3] d8- :
[V:4] G,2G,2D,4 | 
[V:1] G4A4 | 
[V:2] G4F4 | 
[V:3] d8- :
[V:4] G,,4D,4 | 
[V:1] z2D2G2G2 | 
[V:2] z2B2B2B2 | 
[V:3] d8- :
[V:4] z2G,2G,2G,2 | 
[V:1] F2G2A2B2- | 
[V:2] B4A2G2 | 
[V:3] d8- :
[V:4] D,2G,2F,2G,2- | 
[V:1] BAG4^F2 | 
[V:2] B4A4 | 
[V:3] d8 :
[V:4] G,4D,4 | 
[V:1] G4z4 | 
[V:2] G8- | 
[V:3] B8- :
[V:4] G,,8- | 
[V:1] D4D4 | 
[V:2] G8 | 
[V:3] B8- :
[V:4] G,,8- | 
[V:1] D2D2D4 | 
[V:2] z4G4 | 
[V:3] B8 | 
[V:4] G,,8 | 
[V:1] D2F2E2D2 | 
[V:2] F2D2E2F2- | 
[V:3] A8- :
[V:4] D,2D,2C,2D,2 | 
[V:1] C2F2D2F2 | 
[V:2] F2F2F2D2 | 
[V:3] A8- :
[V:4] A,,2D,4D,2 | 
[V:1] E2D2C2F2- | 
[V:2] E2F2E2D2 | 
[V:3] A8- :
[V:4] C,2D,2A,,2D,2- | 
[V:1] F2EDE2D2- | 
[V:2] F4E2F2- | 
[V:3] A8- :
[V:4] D,4C,2D,2 | 
[V:1] D2CB,C4 | 
[V:2] F2EDE4 | 
[V:3] A8- :
[V:4] A,,8- | 
[V:1] z2C2C2C2 | 
[V:2] z2E2E2E2 | 
[V:3] A8 :
[V:4] A,,8 | 
[V:1] D2C2D2B,2 | 
[V:2] F2E2F2G2 | 
[V:3] z8 :
[V:4] z8 | 
[V:1] A,2F2E2D2- | 
[V:2] A6B2- | 
[V:3] x8 :
[V:4] z8 | 
[V:1] D2C2B,4 | 
[V:2] B2A2G4 | 
[V:3] x8 :
[V:4] z8 | 
[V:1] A,8 | 
[V:2] F8 | 
[V:3] x8 :
[V:4] z2D,2D,2D,2 | 
[V:1] z2D2E2F2 | 
[V:2] z2B2A2A2 | 
[V:3] x8 :
[V:4] G,,4z4 | 
[V:1] G2D2E2F2 | 
[V:2] G4z4 | 
[V:3] x8 | 
[V:4] z2B,2A,2A,2 | 
[V:1] G4E4 | 
[V:2] z2G2G2E2 | 
[V:3] z8 :
[V:4] G,4C,2C,2 | 
[V:1] D8 | 
[V:2] F4G4 | 
[V:3] x8 :
[V:4] D,2D,2B,,4 | 
[V:1] C8 | 
[V:2] A8 | 
[V:3] x8 :
[V:4] A,,8 | 
[V:1] A8 | 
[V:2] z4d4- | 
[V:3] x8 :
[V:4] F,8 | 
[V:1] G8 | 
[V:2] d4c4- | 
[V:3] z8 :
[V:4] E,8 | 
[V:1] F8 | 
[V:2] c4B4- | 
[V:3] x8 :
[V:4] D,8 | 
[V:1] E8 | 
[V:2] B4A4- | 
[V:3] x8 :
[V:4] C,8 | 
[V:1] D8 | 
[V:2] A4G4- | 
[V:3] x8 :
[V:4] B,,8 | 
[V:1] z8 | 
[V:2] G4^F4 | 
[V:3] z8 :
[V:4] A,,8 | 
[V:1] z4D4- | 
[V:2] G8- | 
[V:3] x8 :
[V:4] G,,8 | 
[V:1] D4G4- | 
[V:2] G8 | 
[V:3] x8 :
[V:4] B,8 | 
[V:1] G4F4- | 
[V:2] D8 | 
[V:3] x8 | 
[V:4] A,8 | 
[V:1] F4E4- | 
[V:2] B8 | 
[V:3] z8 :
[V:4] G,8 | 
[V:1] E4D4- | 
[V:2] A8 | 
[V:3] x8 :
[V:4] F,8 | 
[V:1] D4C4- | 
[V:2] G8 | 
[V:3] x8 :
[V:4] E,8 | 
[V:1] C4B,4- | 
[V:2] F8 | 
[V:3] x8 :
[V:4] D,8 | 
[V:1] B,4A,4- | 
[V:2] E8 | 
[V:3] z8 :
[V:4] C,8 | 
[V:1] A,4G,4 | 
[V:2] D8 | 
[V:3] x8 :
[V:4] B,,8 | 
[V:1] A,8- | 
[V:2] C8- | 
[V:3] x8 :
[V:4] A,,8- | 
[V:1] A,8 | 
[V:2] C4C4 | 
[V:3] x8 :
[V:4] A,,8- | 
[V:1] z8 | 
[V:2] C2D2E2F2 | 
[V:3] z8 :
[V:4] A,,8 | 
[V:1] G,2A,2B,2C2 | 
[V:2] G2F2G2E2 | 
[V:3] x8 :
[V:4] z8 | 
[V:1] D2C2D2B,2 | 
[V:2] D2A2B2G2 | 
[V:3] x8 :
[V:4] z8 | 
[V:1] A,8 | 
[V:2] F4z2A2 | 
[V:3] x8 | 
[V:4] z2D,2D,2C,2 | 
[V:1] z2D2C2D2 | 
[V:2] A2G2A2F2 | 
[V:3] z8 :
[V:4] D,2B,,2A,,2D,2 | 
[V:1] E2F2G2A2- | 
[V:2] E2A2G2F2 | 
[V:3] x8 :
[V:4] C,2D,2G,,2D,2 | 
[V:1] A2B3AG2- | 
[V:2] E2F3ED2- | 
[V:3] x8 :
[V:4] C,2D,4B,,2 | 
[V:1] G2^F2G4 | 
[V:2] D2C2D2G2 | 
[V:3] x8 :
[V:4] A,,4G,,2B,,2 | 
[V:1] z8 | 
[V:2] A2B4AG | 
[V:3] x8 :
[V:4] C,2D,4C,B,, | 
[V:1] z8 | 
[V:2] AG^FE^F4 | 
[V:3] x8 :
[V:4] C,B,,A,,G,,A,,4 | 
[V:1] D4_E2D2- | 
[V:2] G4z4 | 
[V:3] G8- :
[V:4] G,,8- | 
[V:1] D2B,3CD2 | 
[V:2] d4_e2d2- | 
[V:3] G8- :
[V:4] G,,8- | 
[V:1] G,2D2_E2D2- | 
[V:2] d2B3cd2 | 
[V:3] G8- :
[V:4] G,,8 | 
[V:1] D2B,2C2D2 | 
[V:2] G2d2_e2d2- | 
[V:3] G8- :
[V:4] z8 | 
[V:1] G,2D2_E2D2- | 
[V:2] d2B2c2d2 | 
[V:3] G8- :
[V:4] z8 | 
[V:1] DCB,4A,G, | 
[V:2] G2d2_e2d2- | 
[V:3] G8 | 
[V:4] z8 | 
[V:1] A,4z4 | 
[V:2] d2cBA4 | 
[V:3] F8- :
[V:4] D,8 | 
[V:1] D8 | 
[V:2] z4A4 | 
[V:3] F8- :
[V:4] D,4D,4- | 
[V:1] D4D4- | 
[V:2] A4A4 | 
[V:3] F8- :
[V:4] D,4D,4 | 
[V:1] D4D4 | 
[V:2] D8- | 
[V:3] F8- :
[V:4] z4B,,4- | 
[V:1] D4D4 | 
[V:2] D8 | 
[V:3] F8- :
[V:4] B,,4B,,4 | 
[V:1] D4D4 | 
[V:2] D4D4 | 
[V:3] F8 :
[V:4] B,,4B,,4 | 
[V:1] C4F4 | 
[V:2] E4D2F2- | 
[V:3] A8- :
[V:4] A,,4D,4- | 
[V:1] D2F4E2- | 
[V:2] FGA4GF | 
[V:3] A8- :
[V:4] D,4A,,4- | 
[V:1] E2A4F2- | 
[V:2] E4F4 | 
[V:3] A8 :
[V:4] A,,4D,4 | 
[V:1] F2D4G2- | 
[V:2] D8 | 
[V:3] B8- :
[V:4] B,,4G,,4 | 
[V:1] GAB4AG | 
[V:2] _E8 | 
[V:3] B8- :
[V:4] G,4_E,4 | 
[V:1] F2D2F3G | 
[V:2] F8 | 
[V:3] B8 | 
[V:4] D,8 | 
[V:1] E8- | 
[V:2] G8- | 
[V:3] c8- :
[V:4] C,8- | 
[V:1] E8 | 
[V:2] G8 | 
[V:3] c8- :
[V:4] C,8 | 
[V:1] E8 | 
[V:2] A8 | 
[V:3] c8 :
[V:4] A,,8 | 
[V:1] F4D4- | 
[V:2] D8 | 
[V:3] B8- :
[V:4] z4B,,4- | 
[V:1] D4D4 | 
[V:2] G8 | 
[V:3] B8- :
[V:4] B,,4G,,4 | 
[V:1] B,4G,4 | 
[V:2] d8 | 
[V:3] B8 :
[V:4] z4G,4- | 
[V:1] G6F2 | 
[V:2] B4G4 | 
[V:3] G8- :
[V:4] G,4E,4 | 
[V:1] E4D2G2- | 
[V:2] c4B4 | 
[V:3] G8- :
[V:4] C,4G,4 | 
[V:1] G2E4C2 | 
[V:2] G4z4 | 
[V:3] G8- :
[V:4] E,4C,4 | 
[V:1] B,2D4G,2- | 
[V:2] d4B4 | 
[V:3] G8- :
[V:4] G,,4G,4 | 
[V:1] G,2G4E2 | 
[V:2] G4z2G2 | 
[V:3] G8- :
[V:4] E,4C,4 | 
[V:1] G3FD2G2 | 
[V:2] B2c2d4- | 
[V:3] G8 | 
[V:4] G,,2C,2B,,2G,,2 | 
[V:1] F3DF3G | 
[V:2] d4z2D2 | 
[V:3] !fermata!A8- :
[V:4] D,8 | 
[V:1] A4F2A2- | 
[V:2] F3GA4 | 
[V:3] A8- :
[V:4] z2D,2F,2D,2 | 
[V:1] ABc3BAG | 
[V:2] D2A3Bc2 | 
[V:3] A8- :
[V:4] F,3G,A,4 | 
[V:1] !fermata!F8- | 
[V:2] d2A2d3c | 
[V:3] A8- :
[V:4] !fermata!D,8- | 
[V:1] F8 | 
[V:2] !fermata!d8 | 
[V:3] A8 :
[V:4] D,8 | 
[V:1] G8- | 
[V:2] B3cd2_e2- | 
[V:3] G8- :
[V:4] G,,8- & G,8- | 
[V:1] G8- | 
[V:2] e2dcd4- | 
[V:3] G8- :
[V:4] G,,8- & G,8- | 
[V:1] G8- | 
[V:2] d4_E4 & x4B4 | 
[V:3] G8- :
[V:4] G,,8- & G,8- | 
[V:1] G8 |]  
[V:2] D8 & B8 |]  
[V:3] G8 |]  
[V:4] G,,8 & G,8 |]  



